Suru++-Ubuntu/apps/scalable/resharper.svg

<svg width="256" height="256" version="1.1" viewBox="0 0 67.73 67.73" xmlns="http://www.w3.org/2000/svg" xmlns:xlink="http://www.w3.org/1999/xlink">
 <defs>
  <linearGradient id="linearGradient1108" x1="296" x2="296" y1="-212" y2="236" gradientUnits="userSpaceOnUse">
   <stop style="stop-color:#ffffff" offset="0"/>
   <stop style="stop-color:#ffffff;stop-opacity:.09803922" offset=".125"/>
   <stop style="stop-color:#000000;stop-opacity:.09803922" offset=".925"/>
   <stop style="stop-color:#000000;stop-opacity:.49803922" offset="1"/>
  </linearGradient>
  <clipPath id="clipPath1082-3-361">
   <path d="M 361.9375,-212 C 507.2348,-212 528,-191.28677 528,-46.125 V 70.125 C 528,215.28618 507.2348,236 361.9375,236 H 214.0625 C 68.7652,236 48,215.28618 48,70.125 V -46.125 C 48,-191.28677 68.7652,-212 214.0625,-212 Z" style="fill:#8c59d9"/>
  </clipPath>
  <filter id="filter4569" x="-.01" y="-.01" width="1.023" height="1.025" style="color-interpolation-filters:sRGB">
   <feGaussianBlur stdDeviation="1.16"/>
  </filter>
  <filter id="filter939" x="-.02" y="-.03" width="1.046" height="1.05" style="color-interpolation-filters:sRGB">
   <feGaussianBlur stdDeviation="2.32"/>
  </filter>
  <filter id="filter940" x="-.05" y="-.05" width="1.093" height="1.099" style="color-interpolation-filters:sRGB">
   <feGaussianBlur stdDeviation=".87"/>
  </filter>
 </defs>
 <g transform="translate(0,-229.26666)">
  <path transform="matrix(.26970779 0 0 .26970779 -1.9098094e-8 231.46531)" d="m162.53675 5.5680001c72.64865 0 83.03125 10.356615 83.03125 82.937505v58.125005c0 72.58059-10.3826 82.9375-83.03125 82.9375h-73.937496c-72.648654 0-83.031254-10.35691-83.031254-82.9375v-58.125005c0-72.58089 10.3826-82.937505 83.031254-82.937505z" style="filter:url(#filter939);opacity:.2"/>
  <path d="m43.837429 232.42763c19.593907 0 22.394176 2.79326 22.394176 22.36889v15.67677c0 19.57555-2.800269 22.36889-22.394176 22.36889h-19.941519c-19.593909 0-22.394177-2.79334-22.394177-22.36889v-15.67677c0-19.57563 2.8002682-22.36889 22.394177-22.36889z" style="fill:none;opacity:.1;stroke-linecap:round;stroke-linejoin:round;stroke-width:1.0788311;stroke:#000000"/>
  <path transform="matrix(.26970779 0 0 .26970779 -1.9098094e-8 231.46531)" d="m162.53675 3.5680001c72.64865 0 83.03125 10.356615 83.03125 82.937505v58.125005c0 72.58059-10.3826 82.9375-83.03125 82.9375h-73.937496c-72.648654 0-83.031254-10.35691-83.031254-82.9375v-58.125005c0-72.58089 10.3826-82.937505 83.031254-82.937505z" style="filter:url(#filter4569);opacity:.1"/>
  <path d="m43.837427 232.42763c19.593907 0 22.394175 2.79326 22.394175 22.36889v15.67677c0 19.57555-2.800268 22.36889-22.394175 22.36889h-19.94152c-19.593907 0-22.394176-2.79334-22.394176-22.36889v-15.67677c0-19.57563 2.8002682-22.36889 22.394176-22.36889z" style="fill:#fe4b71"/>
  <path transform="matrix(.26458333 0 0 .26458333 0 229.26666)" d="m128 11.947266v114.16992h122.32422v-29.626956c0-73.986633-10.58296-84.542968-84.63867-84.542968h-37.68555zm77.72656 226.26953c-3.05108 0.44678-6.30591 0.80688-9.77539 1.09375 3.4695-0.28688 6.7243-0.64695 9.77539-1.09375z" style="fill:#ff8c2a"/>
  <path transform="matrix(.26458333 0 0 .26458333 0 229.26666)" d="m250.32422 126.11719h-122.32422v114.16797h37.68555c74.05571 0 84.63867-10.55664 84.63867-84.54297v-29.625z" style="fill:#fe4b71"/>
  <path d="m1.5017162 262.63517h32.36495v30.20694h-9.970969c-19.593906 0-22.393981-2.79311-22.393981-22.36866z" style="fill:#ff2acf"/>
  <path transform="matrix(.1348539 0 0 .1348539 -4.9712559 261.01666)" d="M 361.9375,-212 C 507.2348,-212 528,-191.28677 528,-46.125 V 70.125 C 528,215.28618 507.2348,236 361.9375,236 H 214.0625 C 68.7652,236 48,215.28618 48,70.125 V -46.125 C 48,-191.28677 68.7652,-212 214.0625,-212 Z" clip-path="url(#clipPath1082-3-361)" style="fill:none;opacity:.4;stroke-linecap:round;stroke-linejoin:round;stroke-width:8;stroke:url(#linearGradient1108)"/>
  <path d="m40.795099 241.64462c13.615314 0 15.561151 1.94096 15.561151 15.54358v10.8934c0 13.60256-1.945837 15.54358-15.561151 15.54358h-13.856864c-13.615316 0-15.561152-1.94102-15.561152-15.54358v-10.8934c0-13.60262 1.945836-15.54358 15.561152-15.54358z" style="filter:url(#filter940);opacity:.3"/>
  <path d="m40.795099 241.64462c13.615314 0 15.561151 1.94096 15.561151 15.54358v10.8934c0 13.60256-1.945837 15.54358-15.561151 15.54358h-13.856864c-13.615316 0-15.561152-1.94102-15.561152-15.54358v-10.8934c0-13.60262 1.945836-15.54358 15.561152-15.54358z" style="fill:#404040"/>
  <g transform="translate(-1.1748781 .5988393)">
   <g transform="translate(-.8697644 -.36044411)">
    <path d="m20.387352 276.92398h16.558888" style="fill:none;stroke-linecap:round;stroke-width:4.1397214;stroke:#ffffff"/>
    <path d="m28.666796 264.50414-4.139722-6.20958m-4.139722-2.06986s8.279444 0.96149 8.279444-4.13973c0-5.10121-8.279444-4.13972-8.279444-4.13972m0 16.55956v-16.55888" style="fill:none;stroke-linecap:round;stroke-width:4.1397214;stroke:#ffffff"/>
    <path d="m34.876378 260.36442h16.558888m-16.558888-8.27945h16.558888m-4.139722 12.41917v-16.55889m-8.279443 16.55889v-16.55889" style="fill:none;stroke-linecap:round;stroke-width:4.1397214;stroke:#ffffff"/>
   </g>
  </g>
 </g>
</svg>

<svg xmlns="http://www.w3.org/2000/svg" xmlns:xlink="http://www.w3.org/1999/xlink" width="256" height="256" version="1.1" viewBox="0 0 67.73 67.73">
 <defs>
  <linearGradient id="linearGradient1108" x1="296" x2="296" y1="-212" y2="236" gradientUnits="userSpaceOnUse" xlink:href="#linearGradient1013"/>
  <linearGradient id="linearGradient1013">
   <stop style="stop-color:#ffffff" offset="0"/>
   <stop offset=".125" style="stop-color:#ffffff;stop-opacity:0.09803922"/>
   <stop offset=".925" style="stop-color:#000000;stop-opacity:0.09803922"/>
   <stop style="stop-color:#000000;stop-opacity:0.49803922" offset="1"/>
  </linearGradient>
  <clipPath id="clipPath1082-3-361" clipPathUnits="userSpaceOnUse">
   <path style="fill:#8c59d9" d="M 361.9375,-212 C 507.2348,-212 528,-191.28677 528,-46.125 V 70.125 C 528,215.28618 507.2348,236 361.9375,236 H 214.0625 C 68.7652,236 48,215.28618 48,70.125 V -46.125 C 48,-191.28677 68.7652,-212 214.0625,-212 Z"/>
  </clipPath>
  <filter id="filter4569" width="1.023" height="1.025" x="-.01" y="-.01" style="color-interpolation-filters:sRGB">
   <feGaussianBlur stdDeviation="1.16"/>
  </filter>
  <filter id="filter939" width="1.046" height="1.05" x="-.02" y="-.03" style="color-interpolation-filters:sRGB">
   <feGaussianBlur stdDeviation="2.32"/>
  </filter>
  <filter id="filter940" width="1.093" height="1.099" x="-.05" y="-.05" style="color-interpolation-filters:sRGB">
   <feGaussianBlur stdDeviation=".87"/>
  </filter>
 </defs>
 <g transform="translate(0,-229.26666)">
  <path d="m 162.53675,5.5680001 c 72.64865,0 83.03125,10.3566149 83.03125,82.9375049 v 58.125005 c 0,72.58059 -10.3826,82.9375 -83.03125,82.9375 H 88.599254 C 15.9506,229.56801 5.568,219.2111 5.568,146.63051 V 88.505505 c 0,-72.58089 10.3826,-82.9375049 83.031254,-82.9375049 z" transform="matrix(0.26970779,0,0,0.26970779,-1.9098094e-8,231.46531)" style="opacity:0.2;filter:url(#filter939)"/>
  <path style="opacity:0.1;fill:none;stroke:#000000;stroke-width:1.07883108;stroke-linecap:round;stroke-linejoin:round" d="m 43.837429,232.42763 c 19.593907,0 22.394176,2.79326 22.394176,22.36889 v 15.67677 c 0,19.57555 -2.800269,22.36889 -22.394176,22.36889 H 23.89591 c -19.5939088,0 -22.394177,-2.79334 -22.394177,-22.36889 v -15.67677 c 0,-19.57563 2.8002682,-22.36889 22.394177,-22.36889 z"/>
  <path style="opacity:0.1;filter:url(#filter4569)" d="m 162.53675,3.5680001 c 72.64865,0 83.03125,10.3566149 83.03125,82.9375049 v 58.125005 c 0,72.58059 -10.3826,82.9375 -83.03125,82.9375 H 88.599254 C 15.9506,227.56801 5.568,217.2111 5.568,144.63051 V 86.505505 c 0,-72.58089 10.3826,-82.9375049 83.031254,-82.9375049 z" transform="matrix(0.26970779,0,0,0.26970779,-1.9098094e-8,231.46531)"/>
  <path d="m 43.837427,232.42763 c 19.593907,0 22.394175,2.79326 22.394175,22.36889 v 15.67677 c 0,19.57555 -2.800268,22.36889 -22.394175,22.36889 h -19.94152 c -19.5939074,0 -22.3941756,-2.79334 -22.3941756,-22.36889 v -15.67677 c 0,-19.57563 2.8002682,-22.36889 22.3941756,-22.36889 z" style="fill:#fe4b71"/>
  <path d="M 128 11.947266 L 128 126.11719 L 250.32422 126.11719 L 250.32422 96.490234 C 250.32422 22.503601 239.74126 11.947266 165.68555 11.947266 L 128 11.947266 z M 205.72656 238.2168 C 202.67548 238.66358 199.42065 239.02368 195.95117 239.31055 C 199.42067 239.02367 202.67547 238.6636 205.72656 238.2168 z" transform="matrix(0.26458333,0,0,0.26458333,0,229.26666)" style="fill:#ff8c2a"/>
  <path d="M 250.32422 126.11719 L 128 126.11719 L 128 240.28516 L 165.68555 240.28516 C 239.74126 240.28516 250.32422 229.72852 250.32422 155.74219 L 250.32422 126.11719 z" transform="matrix(0.26458333,0,0,0.26458333,0,229.26666)" style="fill:#fe4b71"/>
  <path style="fill:#ff2acf" d="M 1.5017162,262.63517 H 33.866666 v 30.20694 h -9.970969 c -19.5939058,0 -22.3939808,-2.79311 -22.3939808,-22.36866 z"/>
  <path style="opacity:0.4;fill:none;stroke:url(#linearGradient1108);stroke-width:8;stroke-linecap:round;stroke-linejoin:round" d="M 361.9375,-212 C 507.2348,-212 528,-191.28677 528,-46.125 V 70.125 C 528,215.28618 507.2348,236 361.9375,236 H 214.0625 C 68.7652,236 48,215.28618 48,70.125 V -46.125 C 48,-191.28677 68.7652,-212 214.0625,-212 Z" clip-path="url(#clipPath1082-3-361)" transform="matrix(0.1348539,0,0,0.1348539,-4.9712559,261.01666)"/>
  <path d="m 40.795099,241.64462 c 13.615314,0 15.561151,1.94096 15.561151,15.54358 v 10.8934 c 0,13.60256 -1.945837,15.54358 -15.561151,15.54358 H 26.938235 c -13.615316,0 -15.561152,-1.94102 -15.561152,-15.54358 v -10.8934 c 0,-13.60262 1.945836,-15.54358 15.561152,-15.54358 z" style="opacity:0.3;filter:url(#filter940)"/>
  <path style="fill:#404040" d="m 40.795099,241.64462 c 13.615314,0 15.561151,1.94096 15.561151,15.54358 v 10.8934 c 0,13.60256 -1.945837,15.54358 -15.561151,15.54358 H 26.938235 c -13.615316,0 -15.561152,-1.94102 -15.561152,-15.54358 v -10.8934 c 0,-13.60262 1.945836,-15.54358 15.561152,-15.54358 z"/>
  <g transform="translate(-1.1748781,0.5988393)">
   <g transform="translate(-0.8697644,-0.36044411)">
    <path style="fill:none;stroke:#ffffff;stroke-width:4.13972139;stroke-linecap:round" d="M 20.387352,276.92398 H 36.94624"/>
    <path style="fill:none;stroke:#ffffff;stroke-width:4.13972139;stroke-linecap:round" d="m 28.666796,264.50414 -4.139722,-6.20958 m -4.139722,-2.06986 c 0,0 8.279444,0.96149 8.279444,-4.13973 0,-5.10121 -8.279444,-4.13972 -8.279444,-4.13972 m 0,16.55956 v -16.55888"/>
    <path style="fill:none;stroke:#ffffff;stroke-width:4.13972139;stroke-linecap:round" d="m 34.876378,260.36442 h 16.558888 m -16.558888,-8.27945 h 16.558888 m -4.139722,12.41917 v -16.55889 m -8.279443,16.55889 v -16.55889"/>
   </g>
  </g>
 </g>
</svg>
